X: 6494
T: Cat On The Floor
R: barndance
M: 4/4
K: Gminor
D2 d2 ed B2|e3 e {f}e2 c2|(3gag e2 c2 Hd2|gf dc e2 g2|
b2 b2 g4|g2 g2 e4|E2 G2 B2 e2|g4 e2 d2|g4 e2 d2|d2 B2 d4|
c2 B2 A2 G2|e2 c2 d4|GA FG FE G2|B2 AF G4:|
d4 c2 c2|B2 d2 c2 B2|G6 B2|d6 d2|B6 A2|d4 d2 d2|
e2 c2 d4|BB A2 G4:|

